X:759
T:Wedgwood March, The
C:Nigel Gatherer
Z:Nigel Gatherer
M:2/4
L:1/8
K:Ador
A2 A>c | eA c2 | d>c AG | d>c AG |
A2 A>c | eA c2 | d>c AG | A2 A2 :|
A2 a>f | eA c2 | d>c AG | d>c AG |
A2 a>f | eA c2 | d>c AG | A2 A2 :|
<end>
<start>
